X:12
T:Melker's Reel
R:reel
C:Henrik Norbeck
H:My ex-girlfriend Katarina had two rats called Max and Melker.
H:August 1993
M:C|
K:Ador
A2cA BG~G2|ABcd edBG|A2cA BG~G2|ABcd ~e3g|
ag~g2 agef|gedc BG~G2|ABcd eaaf|gedB ~A3z:|
|:ae (3^cde aece|ged=c BG~G2|ae~e2 aged|
[1 (3B^cd ef ~g3a|bg~g2 bgaf|gedc BG~G2|ABcd eaaf|gedB ~A3z:|
[2 (3B^cd ef ~g3b|ae~e2 aggf|feed (3B^cd ef|~g3a ba~a2|gedB ~A3z||

